X: 2077
T: Hurleyburley
R: reel
C: Rick Gagne
N: 1999 on whistle
N: In celebration of Brad Hurley's 40th birthday
M: 4/4
Q: 1/4=175
K: Em
BG | "Em"E2EB GEBG | eBGB eBgB | "Bm"fBAB fBaB | fBAB fBgB | 
"Em"E~E2B GEBG | eBGB eBgB | "Bm"fBAB fBbB | "Em"eBGB E2 :|
gf | "Am"eAGA egfe | "G"dBAB GABd | "A5"eAGA egfe | "D"dfed gfed | 
"Am"eAGA egfe | "G"dBAB GABd | "A5"eAGA egfe | "Bm"def/e/d "Em"e2 :|
